assets/images/avatar/Avatar 11.svg

<svg fill="none" height="128" viewBox="0 0 128 128" width="128" xmlns="http://www.w3.org/2000/svg" xmlns:xlink="http://www.w3.org/1999/xlink"><mask id="a" height="114" maskUnits="userSpaceOnUse" width="127" x="0" y="7"><path clip-rule="evenodd" d="m65.0078 7.65392c18.0631.25298 37.2492 2.07553 49.0392 15.74568 12.233 14.183 15.987 34.8032 9.801 52.4745-5.573 15.9215-23.232 21.5682-38.3498 29.0839-15.5294 7.72-31.1455 19.26-47.5469 13.618-18.1218-6.233-30.35547-23.3945-34.92525-41.9857-4.66475-18.9776-1.88534-40.0499 11.18695-54.5889 12.3691-13.75702 32.2843-14.60672 50.7948-14.34748z" fill="#eff6f7" fill-rule="evenodd"/></mask><g mask="url(#a)"><path clip-rule="evenodd" d="m65.0078 7.65392c18.0631.25298 37.2492 2.07553 49.0392 15.74568 12.233 14.183 15.987 34.8032 9.801 52.4745-5.573 15.9215-23.232 21.5682-38.3498 29.0839-15.5294 7.72-31.1455 19.26-47.5469 13.618-18.1218-6.233-30.35547-23.3945-34.92525-41.9857-4.66475-18.9776-1.88534-40.0499 11.18695-54.5889 12.3691-13.75702 32.2843-14.60672 50.7948-14.34748z" fill="#eff6f7" fill-rule="evenodd"/><path d="m74.7185 62.9162c0 8.4632 1.1154 15.811 9.3562 20.3459 10.0388 5.5192 11.6571 5.4857 20.3733 10.8434 10.472 6.4305 16.911 14.7655 18.88 26.3495l-118.75659.14c0-1.359 3.32495-12.263 10.29789-19.407 4.4678-4.5713 11.453-8.9842 22.1775-13.5099 14.9669-6.3178 10.7094-9.7524 10.0785-28.0595-.3748-10.9805 27.5932-11.4011 27.5932 3.2976z" fill="#e7baef"/><path d="m76.9737 76.0666c-1.4811-3.0019-2.0297-6.4305-2.1942-10.1333-8.1738.3261-19.5048-.0671-27.2641.195.704 8.7101 1.6153 13.0164-2.0175 16.6157 4.5166 5.8179 19.7547 8.9051 31.4758-6.6774z" fill="#db9fe6"/><path d="m123.331 120.458-24.8076.037-74.0785.082-19.87044.024c0-1.362 3.32495-12.275 10.29794-19.41 2.3192-2.3922 5.3242-4.7571 9.1824-7.0916.4968-.3048 1.0058-.6095 1.5238-.9143 1.3501-.7802 2.8069-1.5482 4.3673-2.3192 2.1557-1.0748 4.5227-2.1395 7.1009-3.1939.2256-.0945.4511-.189.6644-.2835-.2499-.8655 3.2183-4.3215 4.7573-5.8118.0876-.082.1923-.1436.3065-.1803.1143-.0367.2353-.0475.3542-.0318.119.0158.233.0577.3338.1229.1007.0651.1858.1518.249.2538.2011.32.4023.6278.6095.9143 3.6907 5.3607 8.448 8.5699 11.0293 9.4476 1.1368.4023 2.6637 6.333 2.4381 8.0368 1.3973.136 2.804.144 4.2027.024-.018-.3675.0221-.7357.1189-1.0909.3413-1.7158 1.3013-4.7817 1.6426-6.272.0397-.2904.1503-.5666.3219-.8042.1717-.2376.3992-.4292.6625-.5581 3.005-1.1946 9.8712-5.1108 14.3238-11.7638.32-.4724.6095-.9569.9143-1.4659.0354-.0659.0849-.1232.1449-.1678.0601-.0447.1293-.0755.2026-.0903.0733-.0149.149-.0134.2217.0044.0727.0177.1406.0513.1988.0983 2.4869 2.0602 4.2971 5.7051 4.2971 5.7051.6858.3779 1.3258.7223 1.9414 1.0423s1.219.64 1.7646.9143c1.7158.8869 3.136 1.5848 4.4373 2.2248.2834.1401.5668.2834.8411.4144.0823.0336.1524.0701.2225.1067.3444.1768.6888.3413 1.0301.509.6644.3291 1.3135.6613 2.0023 1.0179 1.9627 1.0179 4.142 2.2247 7.171 4.0807 10.478 6.4701 16.902 14.8021 18.88 26.3891z" fill="#f9f3fa"/><path d="m24.4449 120.577c1.3276-8.787 1.1959-17.733-.3901-26.4776 4.1531-2.4852 8.4987-4.6336 12.9951-6.4244 1.1204-.4527 2.2044-.9907 3.2426-1.6091 1.8133 6.2476 7.1619 11.456 13.4949 13.3242 7.5733 2.2369 16.0701.0487 22.272-4.8397 3.6744-2.9505 6.6561-6.6719 8.7345-10.9013 6.0495 3.3036 8.9234 4.5227 12.4769 6.3695-1.2081 10.1604-.7853 20.4494 1.2526 30.4764z" fill="#a9b4c6"/><path d="m57.7859 100.161-.1524-.018c-.2225-.9724-.6979-4.6021-1.0149-4.1876-.8677 1.1198-1.6298 2.3175-2.2766 3.5779-1.667 3.1357-2.6758 6.1407-3.1939 5.7907-6.4975-4.227-12.2148-13.7145-13.4339-17.9538-.2499-.8655 3.2183-4.3215 4.7574-5.8118.0875-.082.1922-.1436.3065-.1803.1142-.0367.2352-.0475.3541-.0318.119.0157.233.0577.3338.1228.1007.0652.1858.1519.249.2539 3.7638 5.9185 8.9234 9.4476 11.6449 10.3802 1.1368.4206 2.6637 6.3543 2.426 8.0578z" fill="#f9f3fa"/><path d="m85.0316 83.7802s-3.5047 11.6084-14.08 20.7448c-1.1337.979-.9752-1.624-3.4255-5.4092-1.0301-1.5909-1.8286-3.5474-3.0476-4.7421-.4358-.4389-2.0358 5.1352-2.4015 5.7903h-.0823c-.1555-.9141.9143-5.4154 1.3592-7.3568.1189-.579.8412-1.1489 1.3867-1.3623 3.2183-1.2769 10.8769-5.6929 15.2381-13.2297.0354-.0659.0848-.1232.1449-.1678.0601-.0447.1292-.0755.2026-.0903.0733-.0149.149-.0134.2217.0044.0727.0177.1405.0513.1988.0983 2.4868 2.0754 4.2849 5.7204 4.2849 5.7204z" fill="#f9f3fa"/><path d="m42.7976 29.6088c-2.1851 5.763.3048 7.0095-1.3105 13.3516-4.3062 16.9234-.9752 23.2929 1.1642 25.987 4.9951 6.2903 11.0263 6.1379 15.6252 6.7048 10.1699 1.219 18.6605-4.605 21.1626-13.696 2.2339-8.1158.9479-9.6579 3.1178-15.7867 5.376-15.2015-2.5326-22.659-16.5181-26.5874-11.8827-3.3493-20.5136 2.8251-23.2412 10.0267z" fill="#e7baef"/><path d="m75.9862 25.9181s3.5565 1.2739 5.2662-3.7913c1.8286-5.3942-6.0952-10.0388-14.2019-11.2609-6.9485-1.04838-14.595 2.1851-19.4255 6.2933-8.9326 7.5947-13.9185 19.8339-5.2571 25.5055 1.1733-10.438 8.8381-17.7919 10.9379-17.7767-3.6023 3.5474-3.9954 6.2507-3.3524 8.1859 5.7905-5.6351 13.8971-7.6709 16.5668-8.0701 7.4789-1.1185 9.466.9143 9.466.9143z" fill="#2e2035"/><path d="m76.1203 26.1741s4.3307 4.1356 2.7703 11.1268c-1.1063 4.9585.576 6.6225 1.5787 9.2404.6637 1.8286.7947 3.808.3779 5.7082l1.4933-4.2179c4.669-3.7577 9.8956-25.0118-.9539-25.6457-8.2103-.4785-5.2663 3.7882-5.2663 3.7882z" fill="#2e2035"/><path d="m82.1211 47.4404c.5882-.829 4.1874-4.9798 5.8148-2.3497.9509 1.5238-.4937 4.7055-2.1089 7.9695-1.9962 4.035-4.6659 4.3642-5.2541 4.3764-.5882.0121 1.5482-9.9962 1.5482-9.9962z" fill="#e7baef"/><path d="m42.2826 45.0632c-.1768-.9996-1.6518-6.2933-4.2484-4.6141-1.5238.9783-1.4812 4.4252-.8472 7.7227.5881 3.0476 2.8982 5.821 3.2426 6.2994.7741 1.0758 2.432-7.5185 1.853-9.408z" fill="#e7baef"/><path d="m79.9176 45.2857c.4464 1.2373.6942 2.5374.7345 3.8522.0762 5.7021-1.7097 10.9897-6.1745 14.659-4.4648 3.6694-10.435 4.8061-16.1524 4.5989-.5485-.0183-1.0941-.0488-1.6426-.0914-11.1939-.8503-15.8477-10.7886-15.7288-15.2381.0731-2.9288 1.4049-10.4016 1.4049-10.4016l-1.1733-6.3725c1.1429 12.3093-3.7425 16.896-2.685 25.9047.8839 7.5703 5.6625 18.1395 18.9593 19.6023 4.8274.5334 9.9474-.7985 14.2507-2.9318 3.0323-1.4994 5.9215-4.224 8.1127-6.787 2.0937-2.4381 3.7029-5.4279 3.9863-8.637.1768-2.0084-.1646-4.0229-.5089-6.0099-.3444-1.987-.7559-3.1939-.9143-5.181-.1366-2.0324-.0815-4.0731.1645-6.0952.0183-.1432.5242-2.6606.3505-2.5356-.6156.445-4.3337-2.4777-2.9836 1.664z" fill="#2e2035"/></g></svg>

<svg width="128" height="128" viewBox="0 0 128 128" fill="none" xmlns="http://www.w3.org/2000/svg">
<mask id="mask0_457_1646" style="mask-type:alpha" maskUnits="userSpaceOnUse" x="0" y="7" width="127" height="114">
<path fill-rule="evenodd" clip-rule="evenodd" d="M65.0078 7.65392C83.0709 7.9069 102.257 9.72945 114.047 23.3996C126.28 37.5826 130.034 58.2028 123.848 75.8741C118.275 91.7956 100.616 97.4423 85.4982 104.958C69.9688 112.678 54.3527 124.218 37.9513 118.576C19.8295 112.343 7.59583 95.1815 3.02605 76.5903C-1.6387 57.6127 1.14071 36.5404 14.213 22.0014C26.5821 8.24438 46.4973 7.39468 65.0078 7.65392Z" fill="#EFF6F7"/>
</mask>
<g mask="url(#mask0_457_1646)">
<path fill-rule="evenodd" clip-rule="evenodd" d="M65.0078 7.65392C83.0709 7.9069 102.257 9.72945 114.047 23.3996C126.28 37.5826 130.034 58.2028 123.848 75.8741C118.275 91.7956 100.616 97.4423 85.4982 104.958C69.9688 112.678 54.3527 124.218 37.9513 118.576C19.8295 112.343 7.59583 95.1815 3.02605 76.5903C-1.6387 57.6127 1.14071 36.5404 14.213 22.0014C26.5821 8.24438 46.4973 7.39468 65.0078 7.65392Z" fill="#EFF6F7"/>
<path d="M74.7185 62.9162C74.7185 71.3794 75.8339 78.7272 84.0747 83.2621C94.1135 88.7813 95.7318 88.7478 104.448 94.1055C114.92 100.536 121.359 108.871 123.328 120.455L4.57141 120.595C4.57141 119.236 7.89636 108.332 14.8693 101.188C19.3371 96.6167 26.3223 92.2038 37.0468 87.6781C52.0137 81.3603 47.7562 77.9257 47.1253 59.6186C46.7505 48.6381 74.7185 48.2175 74.7185 62.9162Z" fill="#E7BAEF"/>
<path d="M76.9737 76.0666C75.4926 73.0647 74.944 69.6361 74.7795 65.9333C66.6057 66.2594 55.2747 65.8662 47.5154 66.1283C48.2194 74.8384 49.1307 79.1447 45.4979 82.744C50.0145 88.5619 65.2526 91.6491 76.9737 76.0666Z" fill="#DB9FE6"/>
<path d="M123.331 120.458L98.5234 120.495L24.4449 120.577L4.57446 120.601C4.57446 119.239 7.89941 108.326 14.8724 101.191C17.1916 98.7988 20.1966 96.4339 24.0548 94.0994C24.5516 93.7946 25.0606 93.4899 25.5786 93.1851C26.9287 92.4049 28.3855 91.6369 29.9459 90.8659C32.1016 89.7911 34.4686 88.7264 37.0468 87.672C37.2724 87.5775 37.4979 87.483 37.7112 87.3885C37.4613 86.523 40.9295 83.067 42.4685 81.5767C42.5561 81.4947 42.6608 81.4331 42.775 81.3964C42.8893 81.3597 43.0103 81.3489 43.1292 81.3646C43.2482 81.3804 43.3622 81.4223 43.463 81.4875C43.5637 81.5526 43.6488 81.6393 43.712 81.7413C43.9131 82.0613 44.1143 82.3691 44.3215 82.6556C48.0122 88.0163 52.7695 91.2255 55.3508 92.1032C56.4876 92.5055 58.0145 98.4362 57.7889 100.14C59.1862 100.276 60.5929 100.284 61.9916 100.164C61.9736 99.7965 62.0137 99.4283 62.1105 99.0731C62.4518 97.3573 63.4118 94.2914 63.7531 92.8011C63.7928 92.5107 63.9034 92.2345 64.075 91.9969C64.2467 91.7593 64.4742 91.5677 64.7375 91.4388C67.7425 90.2442 74.6087 86.328 79.0613 79.675C79.3813 79.2026 79.6708 78.7181 79.9756 78.2091C80.011 78.1432 80.0605 78.0859 80.1205 78.0413C80.1806 77.9966 80.2498 77.9658 80.3231 77.951C80.3964 77.9361 80.4721 77.9376 80.5448 77.9554C80.6175 77.9731 80.6854 78.0067 80.7436 78.0537C83.2305 80.1139 85.0407 83.7588 85.0407 83.7588C85.7265 84.1367 86.3665 84.4811 86.9821 84.8011C87.5977 85.1211 88.2011 85.4411 88.7467 85.7154C90.4625 86.6023 91.8827 87.3002 93.184 87.9402C93.4674 88.0803 93.7508 88.2236 94.0251 88.3546C94.1074 88.3882 94.1775 88.4247 94.2476 88.4613C94.592 88.6381 94.9364 88.8026 95.2777 88.9703C95.9421 89.2994 96.5912 89.6316 97.28 89.9882C99.2427 91.0061 101.422 92.2129 104.451 94.0689C114.929 100.539 121.353 108.871 123.331 120.458Z" fill="#F9F3FA"/>
<path d="M24.4449 120.577C25.7725 111.79 25.6408 102.844 24.0548 94.0994C28.2079 91.6142 32.5535 89.4658 37.0499 87.675C38.1703 87.2223 39.2543 86.6843 40.2925 86.0659C42.1058 92.3135 47.4544 97.5219 53.7874 99.3901C61.3607 101.627 69.8575 99.4388 76.0594 94.5504C79.7338 91.5999 82.7155 87.8785 84.7939 83.6491C90.8434 86.9527 93.7173 88.1718 97.2708 90.0186C96.0627 100.179 96.4855 110.468 98.5234 120.495L24.4449 120.577Z" fill="#A9B4C6"/>
<path d="M57.7859 100.161L57.6335 100.143C57.411 99.1706 56.9356 95.5409 56.6186 95.9554C55.7509 97.0752 54.9888 98.2729 54.342 99.5333C52.675 102.669 51.6662 105.674 51.1481 105.324C44.6506 101.097 38.9333 91.6095 37.7142 87.3702C37.4643 86.5047 40.9325 83.0487 42.4716 81.5584C42.5591 81.4764 42.6638 81.4148 42.7781 81.3781C42.8923 81.3414 43.0133 81.3306 43.1322 81.3463C43.2512 81.362 43.3652 81.404 43.466 81.4691C43.5667 81.5343 43.6518 81.621 43.715 81.723C47.4788 87.6415 52.6384 91.1706 55.3599 92.1032C56.4967 92.5238 58.0236 98.4575 57.7859 100.161Z" fill="#F9F3FA"/>
<path d="M85.0316 83.7802C85.0316 83.7802 81.5269 95.3886 70.9516 104.525C69.8179 105.504 69.9764 102.901 67.5261 99.1158C66.496 97.5249 65.6975 95.5684 64.4785 94.3737C64.0427 93.9348 62.4427 99.5089 62.077 100.164H61.9947C61.8392 99.2499 62.909 94.7486 63.3539 92.8072C63.4728 92.2282 64.1951 91.6583 64.7406 91.4449C67.9589 90.168 75.6175 85.752 79.9787 78.2152C80.0141 78.1493 80.0635 78.092 80.1236 78.0474C80.1837 78.0027 80.2528 77.9719 80.3262 77.9571C80.3995 77.9422 80.4752 77.9437 80.5479 77.9615C80.6206 77.9792 80.6884 78.0128 80.7467 78.0598C83.2335 80.1352 85.0316 83.7802 85.0316 83.7802Z" fill="#F9F3FA"/>
<path d="M42.7976 29.6088C40.6125 35.3718 43.1024 36.6183 41.4871 42.9604C37.1809 59.8838 40.5119 66.2533 42.6513 68.9474C47.6464 75.2377 53.6776 75.0853 58.2765 75.6522C68.4464 76.8712 76.937 71.0472 79.4391 61.9562C81.673 53.8404 80.387 52.2983 82.5569 46.1695C87.9329 30.968 80.0243 23.5105 66.0388 19.5821C54.1561 16.2328 45.5252 22.4072 42.7976 29.6088Z" fill="#E7BAEF"/>
<path d="M75.9862 25.9181C75.9862 25.9181 79.5427 27.192 81.2524 22.1268C83.081 16.7326 75.1572 12.088 67.0505 10.8659C60.102 9.81752 52.4555 13.051 47.625 17.1592C38.6924 24.7539 33.7065 36.9931 42.3679 42.6647C43.5412 32.2267 51.206 24.8728 53.3058 24.888C49.7035 28.4354 49.3104 31.1387 49.9534 33.0739C55.7439 27.4388 63.8505 25.403 66.5202 25.0038C73.9991 23.8853 75.9862 25.9181 75.9862 25.9181Z" fill="#2E2035"/>
<path d="M76.1203 26.1741C76.1203 26.1741 80.451 30.3097 78.8906 37.3009C77.7843 42.2594 79.4666 43.9234 80.4693 46.5413C81.133 48.3699 81.264 50.3493 80.8472 52.2495L82.3405 48.0316C87.0095 44.2739 92.2361 23.0198 81.3866 22.3859C73.1763 21.9074 76.1203 26.1741 76.1203 26.1741Z" fill="#2E2035"/>
<path d="M82.1211 47.4404C82.7093 46.6114 86.3085 42.4606 87.9359 45.0907C88.8868 46.6145 87.4422 49.7962 85.827 53.0602C83.8308 57.0952 81.1611 57.4244 80.5729 57.4366C79.9847 57.4487 82.1211 47.4404 82.1211 47.4404Z" fill="#E7BAEF"/>
<path d="M42.2826 45.0632C42.1058 44.0636 40.6308 38.7699 38.0342 40.4491C36.5104 41.4274 36.553 44.8743 37.187 48.1718C37.7751 51.2194 40.0852 53.9928 40.4296 54.4712C41.2037 55.547 42.8616 46.9527 42.2826 45.0632Z" fill="#E7BAEF"/>
<path d="M79.9176 45.2857C80.364 46.523 80.6118 47.8231 80.6521 49.1379C80.7283 54.84 78.9424 60.1276 74.4776 63.7969C70.0128 67.4663 64.0426 68.603 58.3252 68.3958C57.7767 68.3775 57.2311 68.347 56.6826 68.3044C45.4887 67.4541 40.8349 57.5158 40.9538 53.0663C41.0269 50.1375 42.3587 42.6647 42.3587 42.6647L41.1854 36.2922C42.3283 48.6015 37.4429 53.1882 38.5004 62.1969C39.3843 69.7672 44.1629 80.3364 57.4597 81.7992C62.2871 82.3326 67.4071 81.0007 71.7104 78.8674C74.7427 77.368 77.6319 74.6434 79.8231 72.0804C81.9168 69.6423 83.526 66.6525 83.8094 63.4434C83.9862 61.435 83.6448 59.4205 83.3005 57.4335C82.9561 55.4465 82.5446 54.2396 82.3862 52.2525C82.2496 50.2201 82.3047 48.1794 82.5507 46.1573C82.569 46.0141 83.0749 43.4967 82.9012 43.6217C82.2856 44.0667 78.5675 41.144 79.9176 45.2857Z" fill="#2E2035"/>
</g>
</svg>
